X:195
T:Bwrlwm
M:4/4
L:1/8
Q:280
C:Dwy Droed Chwith
R:Processional
K:G
E2 B2 B3 A | G2 F2 E2 FG | AB AG FG FE | DE FA G2 F2|
E2 B2 B3 A | G2 F2 E2 FG | AB AG FG FE | DE FD F4 :||
|: EF GF EF GF | EF GA B2 B2 | DE FE D3 E |
F2 A2 G2 F2 | EF GF EF GF | EF GA B2 B2 | DE FE D3 A|
G2 F2 E4 :||
